X:1
T:Happy Greetings Bringing
T:Asa Hull
T:Happy Greetings Bringing
T:Public Domain
T:Public Domain
T:Public Domain
C:Asa Hull
Z:Public Domain
%%score ( 1 2 ) ( 3 4 )
L:1/8
M:6/8
K:Bb
V:1 treble 
V:2 treble 
V:3 bass 
V:4 bass 
V:1
 [DF] | [DF]2 [DF] ([EG][DF])[^C=E] | [DF]3 [B,D]2 [DF] | [DB]2 [DB] [FA]2 [EG] | %4
w: 1.~We|come with hap- * py|greet- ings, To|all the child- ren’s|
w: 2.~No|chords of plaint * or|sad- ness, The|child- ren’s hearts should|
w: 3.~With|hap- py greet- * ing|blend- ing, This|prayer to God as-|
 [DF]3- [DF]2 [DF] | [EG]2 [EG] ([GB][FA])[EG] | [DF]3 [B,D]2 [DF] | [EG]2 [DF] [CE]2 [B,D] | %8
w: throng; * And|to their Sab- * bath|meet- ings, We|bear the gift of|
w: know; * But|joy- ful notes * of|glad- ness, From|youth- ful lips should|
w: cends: * That|while our songs * are|wend- ing From|lips of youth- ful|
 [A,C]3- [A,C]2 [EF] | [DF]2 [DF] ([EG][DF])[^C=E] | [DF]3 [B,D]2 [DF] | [DB]2 [FB] [Fc]2 [Fc] | %12
w: song; * The|songs of great * sal-|va- tion, The|strains of ju- bi-|
w: flow; * Ho-|san- nas hap- * py|fill- ing Your|tem- ple- arch- es|
w: friends, * Their|hearts be e’er * re-|peat- ing The|songs of grace and|
 [Fd]3- [Fd]2 [Fd] | [Fe]2 [Fe] (ed)[Fc] | [Fd]3 [^Fd]2 [GB] | [Gc]2 [Gc] (AG)[EA] | %16
w: lee! * Of|praise and ex- * al-|tion, The shouts|of sac- red * glee!|
w: high, * Un-|til the mu- * sic|ing Sweeps far|a- bove the * sky!|
w: love, * Un-|til with hap- * py|ing, We meet|in bliss a- * bove!|
 [DB]3- [DB]2 ||"^Refrain" F | (FD)F (BF)[DB] | [Fd]3 [DB]2 [FBd] | (F2 F [df][ce])[FBd] | %21
w: hap- *|py|ings * bring- ing, * We|come thee with|sing- * * * ing|
w: |||||
w: |||||
 [FAc]3- [FAc]2 F | (cA)[Fc] (ed)[Fc] | [Fd]3 [Fd]2 [GB] | [FA]2 [FA] [=EG]2 [EG] | F3- F2 [EF] | %26
w: this * our|bath * home; With * hap-|ings bring- ing,|We wel- come thee|with * sing-|
w: |||||
w: |||||
 ([DF][B,D])[DF] [DB]2 [DG] | [EG]3 [EG]2 [EG] | (G^F)[_EG] !>![=Ec]2 [EB] | [FA]3 [FA]2 [FA] | %30
w: While * Je- sus’ praise|is ring- ing,|In * this our Sab-|home! * *|
w: ||||
w: ||||
 (A^G)[FA] !>![^Fd]2 [Fc] | [GB]3 [GB]2 [EG] | [DF]2 [DB] (AG)[EA] | [DB]3- [DB]2 |] %34
w: ||||
w: ||||
w: ||||
V:2
 x | x6 | x6 | x6 | x6 | x6 | x6 | x6 | x6 | x6 | x6 | x6 | x6 | x3 F2 x | x6 | x3 F2 x | x5 || F | %18
w: |||||||||||||ta-||With||greet-|
w: |||||||||||||thrill-|||||
w: |||||||||||||greet-|||||
 FDF BF x | x6 | [df]3- F2 x | x5 F | F2 F2 x2 | x6 | x6 | F3- F2 x | x6 | x6 | =E2 x4 | x6 | %30
w: come, we come! We wel-||To *|Sab-|py greet-|||ing, *|||bath||
w: ||||||||||||
w: ||||||||||||
 E2 x4 | x6 | x3 E2 x | x5 |] %34
w: ||||
w: ||||
w: ||||
V:3
 [B,,B,] | [B,,B,]2 [B,,B,] [B,,B,]2 [B,,B,] | [B,,B,]3 [B,,F,]2 [B,,B,] | %3
w: ~|~ ~ ~ ~|~ ~ ~|
 [B,,F,]2 [B,,F,] [B,,B,]2 [B,,B,] | [B,,B,]3- [B,,B,]2 [B,,B,] | [E,B,]2 [E,B,] [E,B,]2 [E,B,] | %6
w: ~ ~ ~ ~|~ * ~|~ ~ ~ ~|
 [B,,B,]3 [B,,F,]2 [B,,B,] | [F,A,]2 [F,A,] [F,A,]2 F, | F,3- F,2 [F,A,] | %9
w: ~ ~ ~|~ ~ ~ ~|~ * ~|
 [B,,B,]2 [B,,B,] [B,,B,]2 [B,,B,] | [B,,B,]3 [B,,F,]2 [B,,B,] | [B,,B,]2 [D,B,] [F,A,]2 [F,A,] | %12
w: ~ ~ ~ ~|~ ~ ~|~ ~ ~ ~|
 [B,,B,]3- [B,,B,]2 [B,,B,] | [C,A,]2 [C,A,] [F,A,]2 [F,A,] | [B,,B,]3 [D,A,]2 [G,B,] | %15
w: ~ * ~|~ ~ ~ ~|~ ~ ~|
 [E,E]2 [E,E] [F,E]2 [F,C] | [B,,B,]3- [B,,B,]2 || F, | (F,D,)F, (B,F,)[D,B,] | %19
w: ~ ~ ~ ~|~ *|~|~ * ~ ~ * We|
 [B,,B,]3 [B,,B,]2 [B,,B,] | [B,,B,]2 [B,,B,] [B,,B,]2 [B,,B,] | [F,A,]3- [F,A,]2 [F,A,] | %22
w: |||
 [F,A,]2 [F,A,] (CB,)[F,A,] | B,3 B,2 [B,,D] | [C,C]2 [C,C] [C,B,]2 [C,B,] | %25
w: |||
 [F,A,]3- [F,A,]2 [F,A,] | [B,,B,]2 [B,,B,] [B,,F,]2 [B,,B,] | [E,B,]3 [E,B,]2 [E,B,] | %28
w: |||
 [E,B,]2 [E,B,] [C,C]2 [C,C] | [F,C]3 [F,C]2 [F,C] | [F,C]2 [F,C] [D,D]2 [D,D] | %31
w: |||
 [G,D]3 [E,E]2 [E,B,] | [F,B,]2 [F,B,] [F,C]2 [F,C] | [B,,B,]3- [B,,B,]2 |] %34
w: |||
V:4
 x | x6 | x6 | x6 | x6 | x6 | x6 | x5 F, | F,3- F,2 x | x6 | x6 | x6 | x6 | x6 | x6 | x6 | x5 || %17
w: |||||||~|~ *|||||||||
 F, | F,D,F, B,F, x | x6 | x6 | x6 | x3 F,2 x | B,3 B,2 x | x6 | x6 | x6 | x6 | x6 | x6 | x6 | x6 | %32
w: ~|come, we come, we come!||||||||||||||
 x6 | x5 |] %34
w: ||

